cssgg/corner-right-up.svg

<svg
  width="24"
  height="24"
  viewBox="0 0 24 24"
  fill="none"
  xmlns="http://www.w3.org/2000/svg"
>
  <path
    d="M9.28999 10.6254L7.87709 9.20989L14.2469 2.85181L20.605 9.22164L19.1895 10.6346L15.4082 6.84631L15.3987 17.152C15.3967 19.3611 13.6042 21.1503 11.395 21.1483L3.39502 21.1409L3.39687 19.1409L11.3969 19.1483C12.5014 19.1493 13.3977 18.2547 13.3987 17.1501L13.4085 6.51446L9.28999 10.6254Z"
    fill="currentColor"
  />
</svg>

<svg viewBox="0 0 24 24" xmlns="http://www.w3.org/2000/svg"><path d="M9.28 10.62L7.86 9.2l6.36-6.36 6.35 6.36 -1.42 1.41 -3.79-3.79 -.01 10.3c-.01 2.2-1.8 3.99-4.01 3.99l-8-.01 0-2 8 0c1.1 0 2-.9 2-2l0-10.64 -4.12 4.11Z"/></svg>
